X: 1
T:Faral O'Gara
R:Reel
S:Charles de Lint
Z:Added by Alf Warnock - alf0@rogers.com - www.alfwarnock.info/alfs
M:4/4
L:1/8
K:D
DB,|A,D (3DDD A,DFA|BFAF EFAc|d2cd (3Bcd AF|(3GFE (3FED EDB,G,|
A,D (3DDD A,DFA|BFAF EFAc|d2cd BAFA|GFEG FDD2:|
|:fd (3ddd fdgd|f2gf edBc|(3dcB BA Bcde|fdgf e2de|
|[1 fd (3ddd fdgd|f2gf edBc|(3dcB BA BAFA|GFEG FDD2:|
|[2 fgaf edBc|defd BAFD|A,D (3DDD A,DFA|BFAF D2|]

